X:1174
T:Barinya
S:A. Humenyuk
Q:72
O:Ethnic Russian
N:Russian Dance from Ukraine
M:2/4
L:1/16
A:town of Dynkan'ka, Poltava, Ukraine
K:D
e2A2A2a2 | a2f2 gfed | cdcB A2A2 | {g}a2a2 aga2 | \
ede2 e2fg | {g}a2f2 gfed | \
cdcB A2A2 |{g}a2f2 g-fed |\
e4 e2fg | {g}a2f2 g-fed | \
cdcB A2A2 | {g}a2f2 gfe{fgabc'd'}e' | \
e4 efed | cdec d2f-d | cdec ABcd | cdec d2f-d | \
cdec ABcd | cdec d2f-d | cdcB ABcd | cdec d4 ||
|: {cdefg}a4 {cdefg}a4 | {cdefg}a4 {c}d2f2 | \
edcB ABcd | cdec d4 ::\
e'2 e'2e'2d'2 | c'2c'2d'2d'2 | 
e'2e'2e'2d'2 | c'2c'2d'2e'2 ::\
 {g}a4 e2d2 | cdec d2d2 | ABcd efed | cde c d2d2 :|
{g}a4 e2d2 | cdec d2d2 | ABcd efed | cdec d2d2 ||\
|: A2c2 e2dc | cdec d2d2 | 
A2c2 e2dc | cdec d2d2 ::\
{cdefg}a4 {cdefg}a4 | {cdefg}a4 fe c2 |
cdc2 BcB2 | cdc2 d4 :| \
A2c2 e2dc | cdc2 BcB2 | cdc2 d4 | d4 d2d2 | d4 z4 |]


